Adwaita++-Light/panel/16/btsync-gui-6.svg

<svg height="16" width="16" xmlns="http://www.w3.org/2000/svg">
  <path d="m14.062177 4.4999997c-1.932874-3.3478374-6.2143391-4.49505257-9.562177-2.5621776-3.3478377 1.9328749-4.49505316 6.2143407-2.5621781 9.5621779 1.9328756 3.347837 6.2143408 4.495053 9.5621791 2.562177 3.347837-1.932874 4.495052-6.2143393 2.562176-9.5621773zm-1.73205 1.0000003c1.209501 2.0949178.731016 4.70155-1.013907 6.243863l.549805.952288-3.5980757-.232049 1.5980757-3.2320512.408203.7070278c.800456-.9391784.976104-2.3093392.323849-3.4390785-.357844-.6172897-.923984-1.0868282-1.5968042-1.3243387l-.0007276-2.0676665c1.4007518.2847492 2.6126568 1.155394 3.3295818 2.3920051zm-4.5980762-1.9641018-1.5980761 3.2320509-.4082036-.7070285c-.8004565.9391782-.9761025 2.3093397-.3238476 3.43908.357843.6172884.9239837 1.0868274 1.5968039 1.3243394l.0007279 2.067665c-1.4007524-.284749-2.6126304-1.15541-3.3295822-2.392005-1.2095025-2.0949181-.7310163-4.7015497 1.0139055-6.2438627l-.5498038-.9522897z" fill="#444"/>
</svg>

<svg xmlns="http://www.w3.org/2000/svg" width="16" height="16" version="1.1">
 <defs>
  <style id="current-color-scheme" type="text/css">
   .ColorScheme-Text { color:#444444; } .ColorScheme-Highlight { color:#4285f4; }
  </style>
 </defs>
 <path style="fill:currentColor" class="ColorScheme-Text" d="M 14.062177,4.4999997 C 12.129303,1.1521623 7.8478379,0.00494713 4.5,1.9378221 1.1521623,3.870697 0.00494684,8.1521628 1.9378219,11.5 c 1.9328756,3.347837 6.2143408,4.495053 9.5621791,2.562177 3.347837,-1.932874 4.495052,-6.2143393 2.562176,-9.5621773 z M 12.330127,5.5 c 1.209501,2.0949178 0.731016,4.70155 -1.013907,6.243863 L 11.866025,12.696151 8.2679493,12.464102 9.866025,9.2320508 10.274228,9.9390786 C 11.074684,8.9999002 11.250332,7.6297394 10.598077,6.5000001 10.240233,5.8827104 9.674093,5.4131719 9.0012728,5.1756614 L 9.0005452,3.1079949 C 10.401297,3.3927441 11.613202,4.2633889 12.330127,5.5 Z M 7.7320508,3.5358982 6.1339747,6.7679491 5.7257711,6.0609206 C 4.9253146,7.0000988 4.7496686,8.3702603 5.4019235,9.5000006 5.7597665,10.117289 6.3259072,10.586828 6.9987274,10.82434 l 7.279e-4,2.067665 C 5.5987029,12.607256 4.3868249,11.736595 3.6698731,10.5 2.4603706,8.4050819 2.9388568,5.7984503 4.6837786,4.2561373 L 4.1339748,3.3038476 7.7320508,3.5358982 Z"/>
</svg>
